X: 1
T: Tars of the Victory
S: https://lesters-tune-a-day.blogspot.com/2019/08/tune-517-tars-of-victory.html
R: jig
Z: 2019 John Chambers <jc:trillian.mit.edu>
M: 6/8
L: 1/8
K: G
d |\
d^cd d^cd | g2G GAB | ABc DEF | G2B d2d |\
d^cd d^cd | g2G GAB | ABc DEF | G3 G2 :|
|: g |\
fed d2c | Bcd G2B | ABc DEF | G2B d2g |\
fed d2c | Bcd G2B | ABc DEF | G3G2 :|
